X:1
T:Title
%%score { 1 | 2 }
L:1/8
M:2/4
K:G
V:1 treble nm="Grand Piano"
V:2 treble 
V:1
 z2[Q:1/4=92] DG | BB B[FA] | B<d GA |[M:1/4] B>c | BA |[M:2/4] G2 DG | BB B[FA] | B<d GB | %8
 d>e dB | [FA]2 DG | BB B[FA] |[M:1/4] B<d | GA |[M:2/4] B>c BA | G2 [G,DG][G,DF] | %15
 [G,CE][G,CE] [CEG][G,CE] | [G,CE][G,B,D] [G,DG][DB] | AG B>A |[M:1/4] G2 | GB |[M:2/4] d>e dB | %21
 [FA]2 [FB][FA] | G>B AG | [^DF]2 [DG][A,DF] | [G,CE][G,CE] [CEG][G,CE] | %25
 [G,CE][G,B,D] [G,DG][DB] | A>A GA | B2 GB | d>e dB | [FA]2 [FB][FA] | G>B AG | [^DF]2 [DG][A,DF] | %32
 [G,CE][G,CE] [CEG][G,CE] | [G,CE][G,B,D] [G,DG][DB] | [CDA][B,DG] [DFB]>[CFA] |[M:1/4] [B,G]2 |] %36
V:2
 z2 [G,B,][G,B,D] | [G,DG][G,DG] [G,DG][D,D] | [G,DG]<[G,B,G] [G,B,][G,CG] |[M:1/4] [G,DG]>[G,EG] | %4
 [G,DG][G,CG] |[M:2/4] [G,B,D]2 [G,B,][G,B,D] | [G,DG][G,DG] [G,DG][D,D] | %7
 [G,DG]<[G,B,G] [G,B,][G,DG] | [G,B,G]>[G,CG] [G,B,G][G,DG] | [D,D]2 [G,B,][K:treble][G,B,D] | %10
 [G,DG][G,DG] [G,DG][D,D] |[M:1/4] [G,DG]<[G,B,G] | [G,B,][G,CG] | %13
[M:2/4] [G,DG]>[G,EG] [G,DG][G,CG] | [G,B,D]2 B,,B,, | C,C, C,C, | G,,G,, B,,G,, | %17
 [D,CD][D,B,D] [D,D]>[D,CD] |[M:1/4][K:treble] [G,B,D]2 | [G,B,D][G,DG] | %20
[M:2/4] [G,B,G]>[G,CG] [G,B,G][G,DG] | [D,D]2 [D,D][D,C] | [E,B,E]>[E,G,E] [E,CE][E,B,E] | %23
 [B,,B,]2 [B,,B,]B,, | C,C, C,C, | G,,G,, B,,G,, | [D,CD]>[D,CD] [D,B,D][D,CD] | %27
 [G,D]2 [G,B,D][G,DG] | [G,B,G]>[G,CG] [G,B,G][G,DG] | [D,D]2 [D,D][D,C] | %30
 [E,B,E]>[E,G,E] [E,CE][E,B,E] | [B,,B,]2 [B,,B,]B,, | C,C, C,C, | G,,G,, B,,G,, | D,D, D,>D, | %35
[M:1/4] G,2 |] %36

